logos/samsung.svg

<?xml version="1.0" encoding="UTF-8"?>
<svg width="512px" height="79px" viewBox="0 0 512 79" version="1.1" xmlns="http://www.w3.org/2000/svg" xmlns:xlink="http://www.w3.org/1999/xlink" preserveAspectRatio="xMidYMid">
    <title>Samsung</title>
    <g>
        <path d="M486.108639,34.4422268 L486.108639,45.1171955 L493.610629,45.1171955 L493.610629,55.7085165 C493.630768,56.5197529 493.595668,57.3855397 493.482834,58.1306843 L493.419836,58.492392 C493.407675,58.5730284 493.392884,58.6559776 493.375335,58.7409162 L493.314289,59.0013777 C493.302693,59.045675 493.290376,59.0903889 493.277323,59.135479 L493.190027,59.4102111 C492.515266,61.360414 490.48424,63.8317561 485.919726,63.8317561 C481.058522,63.8317561 479.107245,60.9947562 478.573554,59.0013777 L478.510664,58.7409162 L478.510664,58.7409162 L478.46379,58.492392 L478.46379,58.492392 C478.329389,57.6756506 478.272057,56.654959 478.272057,55.7085165 L478.272057,22.2559576 C478.272057,21.204146 478.335179,20.063964 478.525452,19.1350953 L478.653678,18.5706383 C478.663213,18.5315434 478.673299,18.4918158 478.683955,18.4515002 L478.75492,18.2029081 C478.767948,18.1604191 478.78159,18.1174314 478.795868,18.0739895 L478.889339,17.8082457 C479.582566,15.9599698 481.417339,13.4983102 485.880252,13.4983102 C489.325646,13.4983102 491.180058,14.9020768 492.171544,16.3529351 L492.347513,16.6251916 C492.402917,16.7159069 492.455128,16.806475 492.504324,16.8965646 L492.643043,17.1650666 L492.643043,17.1650666 L492.764737,17.4287104 L492.764737,17.4287104 L492.870471,17.6855086 L492.870471,17.6855086 L492.961314,17.9334739 L492.961314,17.9334739 L493.03833,18.1706191 L493.03833,18.1706191 L493.102587,18.3949567 L493.102587,18.3949567 L493.155151,18.6044995 L493.155151,18.6044995 L493.197089,18.7972602 L493.197089,18.7972602 C493.216228,18.8931263 493.233728,18.9948956 493.249729,19.1007026 L493.293374,19.4283711 C493.299946,19.4843794 493.306177,19.5409308 493.312086,19.597792 L493.357036,20.1116115 L493.357036,20.1116115 L493.387411,20.6043826 L493.387411,20.6043826 L493.413335,21.2762852 L493.413335,21.2762852 L493.419836,21.6206099 L493.419836,21.6206099 L493.419836,25.6826996 L511.853378,25.6826996 L511.856912,23.1540485 L511.856912,23.1540485 L511.868506,22.2496944 L511.868506,22.2496944 L511.865444,21.5486715 L511.865444,21.5486715 L511.849062,20.732439 L511.849062,20.732439 L511.834138,20.2929989 L511.834138,20.2929989 L511.801381,19.608049 L511.801381,19.608049 L511.754094,18.9064072 L511.754094,18.9064072 L511.713338,18.4372925 L511.713338,18.4372925 C510.466515,6.07987418 501.178192,1.32545282 489.876412,0.498142731 L489.120043,0.448766329 L489.120043,0.448766329 L488.358105,0.410783778 C487.97581,0.394600627 487.591576,0.382599407 487.205625,0.374643976 L486.431502,0.364087157 C486.302122,0.3627789 486.172568,0.3627789 486.042848,0.3627789 L485.265473,0.368079624 C485.136313,0.369853094 485.007359,0.372074852 484.878619,0.37474982 L484.108807,0.396277512 L484.108807,0.396277512 L483.344489,0.42891845 L483.344489,0.42891845 L482.586029,0.472908849 L482.586029,0.472908849 L481.833789,0.528484921 C481.584119,0.548967469 481.335547,0.571420333 481.088132,0.59588288 L480.349422,0.675338942 C480.226902,0.689599584 480.104688,0.704372489 479.982785,0.719662578 L479.255173,0.817648694 C477.566434,1.06094785 475.941826,1.4075442 474.402087,1.87094132 L473.747456,2.07673053 C466.604997,4.41993962 461.414554,9.40185904 460.348862,18.4372925 L460.239379,19.4402632 L460.239379,19.4402632 L460.163627,20.2168172 L460.163627,20.2168172 L460.093306,21.030969 L460.093306,21.030969 L460.034967,21.8409525 C460.001524,22.3702706 459.980435,22.8689654 459.980435,23.2813486 L459.981894,54.4490657 L459.981894,54.4490657 L459.986916,54.8359022 L459.986916,54.8359022 L460.003254,55.4238967 L460.003254,55.4238967 L460.021431,55.8360531 L460.021431,55.8360531 L460.046565,56.2763378 L460.046565,56.2763378 L460.079629,56.7550365 L460.079629,56.7550365 L460.121591,57.2824353 L460.121591,57.2824353 L460.203341,58.1873461 L460.203341,58.1873461 L460.271793,58.8814954 C461.306395,70.3647656 470.010289,75.4730628 480.660082,76.6783139 L481.406176,76.7560996 C482.654688,76.8752915 483.927711,76.9424884 485.216246,76.9615765 L485.991156,76.9672873 L485.991156,76.9672873 L486.77067,76.9615765 C488.066565,76.9424884 489.345402,76.8752915 490.598443,76.7560996 L491.347103,76.6783139 C502.031514,75.4730628 510.678811,70.3647656 511.731195,58.8814954 L511.816441,57.8688198 L511.816441,57.8688198 L511.879495,57.0120055 L511.879495,57.0120055 L511.936086,56.0520366 L511.936086,56.0520366 L511.97012,55.2251523 L511.97012,55.2251523 L511.999996,54.0543569 L511.999996,54.0543569 L511.999996,34.4422268 L486.108639,34.4422268 Z M359.006208,2.3317928 L340.494658,2.3317928 L340.494658,56.4801444 C340.523794,57.4237672 340.494658,58.4839332 340.332062,59.2612002 L340.277591,59.4967901 L340.277591,59.4967901 L340.21005,59.7476372 C340.185242,59.833546 340.158081,59.9216231 340.128392,60.0114939 L340.031571,60.2861126 C339.333222,62.1477819 337.554139,64.5770678 333.298124,64.5770678 C329.306994,64.5770678 327.484733,62.3846373 326.721478,60.5692455 L326.609603,60.2861126 C326.59237,60.2395708 326.57583,60.1933839 326.559963,60.1475985 L326.472669,59.8780798 L326.472669,59.8780798 L326.40055,59.6204469 C326.38974,59.5786235 326.379523,59.5373889 326.369877,59.4967901 L326.318698,59.2612002 L326.318698,59.2612002 C326.133545,58.4839332 326.110049,57.4237672 326.133545,56.4801444 L326.133545,2.3317928 L307.627634,2.3317928 L307.627634,54.7996686 L307.624315,55.2214936 L307.624315,55.2214936 L307.630803,55.9590654 L307.630803,55.9590654 L307.656611,57.0443008 L307.656611,57.0443008 L307.707349,58.3632826 L307.707349,58.3632826 L307.742794,59.0273422 L307.742794,59.0273422 L307.766824,59.3797391 L307.766824,59.3797391 L307.790231,59.6390253 C308.697096,69.3462825 314.392033,74.3990744 322.434552,76.5133134 L323.119736,76.6850246 C324.616171,77.0420757 326.189005,77.302232 327.823256,77.4760264 L328.581833,77.5501454 L328.581833,77.5501454 L329.348804,77.6122301 L329.348804,77.6122301 L330.123842,77.6625106 C330.513324,77.6847382 330.905708,77.7026255 331.30081,77.716302 L332.094585,77.7380789 L332.094585,77.7380789 L332.895282,77.7488571 C333.02929,77.7501936 333.163573,77.7501936 333.298124,77.7501936 L334.103699,77.7448284 C334.237401,77.7430337 334.370818,77.7407854 334.503944,77.7380789 L335.299146,77.716302 C335.694944,77.7026255 336.087997,77.6847382 336.478122,77.6625106 L337.254415,77.6122301 L337.254415,77.6122301 L338.022577,77.5501454 L338.022577,77.5501454 L338.782283,77.4760264 C349.609256,76.3263095 357.730588,71.3971115 358.849251,59.6390253 L358.864077,59.5221387 L358.864077,59.5221387 L358.894395,59.2140618 L358.894395,59.2140618 L358.939144,58.5997172 L358.939144,58.5997172 L358.979191,57.8563455 L358.979191,57.8563455 L359.001149,57.3188872 L359.001149,57.3188872 L359.023787,56.4945904 L359.023787,56.4945904 L359.030151,55.9590654 L359.030151,55.9590654 L359.028044,55.4556083 L359.028044,55.4556083 L359.01619,55.0021019 C359.013331,54.9316736 359.010012,54.8640716 359.006208,54.7996686 L359.006208,2.3317928 Z M188.919124,2.3317928 L179.684966,59.5469187 L170.456447,2.3317928 L140.596046,2.3317928 L139.012376,75.5264767 L157.305878,75.5264767 L157.801186,7.7679629 L170.387837,75.5264767 L188.94826,75.5264767 L201.546189,7.7679629 L202.043377,75.5264767 L220.382932,75.5264767 L218.74569,2.3317928 L188.919124,2.3317928 Z M78.3620494,2.3317928 L64.8035796,75.5264767 L84.5754865,75.5264767 L94.7927418,7.7679629 L104.764693,75.5264767 L124.39938,75.5264767 L110.897302,2.3317928 L78.3620494,2.3317928 Z M423.700767,61.2621695 L406.463672,2.3317928 L379.301619,2.3317928 L379.301619,74.7633076 L397.269928,74.7633076 L396.22668,13.9475649 L414.73823,74.7633076 L440.788424,74.7633076 L440.788424,2.3317928 L422.702632,2.3317928 L423.700767,61.2621695 Z M257.497199,21.3809447 C257.172006,19.9354348 257.265992,18.3996979 257.434228,17.5970546 C257.481819,17.3840474 257.538095,17.1692847 257.604489,16.9548461 L257.711851,16.6336913 C258.442148,14.604543 260.150519,12.6984864 264.067784,12.6984864 C268.29529,12.6984864 270.77371,15.3338634 270.77371,19.2888087 L270.77371,23.7644384 L288.819087,23.7644384 L288.819087,18.6628597 C288.819087,7.15009664 281.284251,2.72140152 273.233076,1.16918659 L272.570317,1.04799809 L272.570317,1.04799809 L271.906099,0.939245119 L271.906099,0.939245119 L271.241288,0.842408501 L271.241288,0.842408501 L270.576748,0.756969073 L270.576748,0.756969073 L269.913348,0.68240767 L269.913348,0.68240767 L269.251952,0.618205126 C269.031917,0.598473069 268.812361,0.580380961 268.593427,0.563842274 L267.938638,0.518799951 L267.938638,0.518799951 L267.288452,0.48255899 L267.288452,0.48255899 L266.643734,0.454600226 L266.643734,0.454600226 L266.005351,0.434404494 L266.005351,0.434404494 L265.374168,0.421452627 L265.374168,0.421452627 L264.44279,0.4144714 L264.44279,0.4144714 L264.03212,0.415918435 L264.03212,0.415918435 L263.215775,0.427567675 C263.080288,0.430490118 262.945091,0.433905715 262.810191,0.437818519 L262.004424,0.467294254 C261.737065,0.479129944 261.470957,0.49298689 261.206159,0.508897515 L260.415758,0.562822862 C249.406869,1.40494024 240.815883,5.92695035 239.097493,16.5312494 C238.589026,19.7606202 238.463085,22.6272036 239.272307,26.2851521 C240.546057,32.2961367 245.55356,36.5735653 251.301598,40.1612836 L252.19135,40.7079395 C252.340482,40.7981888 252.489999,40.8880199 252.639852,40.9774503 L253.54259,41.5093655 L253.54259,41.5093655 L254.450958,42.0325093 L254.450958,42.0325093 L255.362534,42.5477264 L255.362534,42.5477264 L256.730614,43.3075373 L256.730614,43.3075373 L260.325304,45.2774772 L260.325304,45.2774772 L261.198692,45.7617596 L261.198692,45.7617596 L262.057122,46.2444502 L262.057122,46.2444502 L262.898173,46.7263939 L262.898173,46.7263939 L263.719422,47.2084351 C267.637035,49.539898 270.775883,51.9043801 271.905305,54.7310585 C272.530364,56.4103472 272.393712,58.5274299 272.091505,59.8780066 L272.039706,60.095799 C271.965018,60.4204905 271.871165,60.7454326 271.753075,61.0647862 L271.626718,61.3820607 C270.795375,63.3244322 268.978027,64.9802692 264.985091,64.9802692 C260.430513,64.9802692 257.688931,62.3618097 257.688931,58.4153232 L257.683292,51.3907839 L238.260074,51.3907839 L238.260074,56.9745125 C238.260074,70.0801091 246.574907,75.7730235 256.98852,77.4632189 L257.763644,77.5811489 C258.282828,77.6549568 258.806755,77.7192087 259.334678,77.7743154 L260.129465,77.8501678 C261.059994,77.93078 262.001613,77.9840136 262.950309,78.0120695 L263.765116,78.0300027 C263.901175,78.0319811 264.037355,78.0334584 264.173645,78.0344411 L264.582829,78.035912 C264.855174,78.035912 265.126531,78.0339732 265.39684,78.0300667 L266.204557,78.0124159 C266.338631,78.0084807 266.472428,78.0040465 266.60594,77.9991096 L267.403526,77.9634275 C267.668205,77.9495037 267.931683,77.9335405 268.193896,77.9155093 L268.976684,77.8551828 C269.495932,77.8107907 270.00988,77.7580115 270.518036,77.6966156 L271.275864,77.5980304 L271.275864,77.5980304 L272.024635,77.4863479 C272.272675,77.4469184 272.519144,77.4052772 272.763981,77.3613958 L273.493534,77.2230018 C282.308693,75.4567389 288.86754,70.6675786 290.184709,61.4595408 C290.366057,60.0861253 290.477571,58.8178229 290.537662,57.6584313 L290.570306,56.9016801 C290.574545,56.778258 290.578199,56.6561908 290.581294,56.5354839 L290.593357,55.8276064 L290.593357,55.8276064 L290.593357,55.1526238 L290.593357,55.1526238 L290.582078,54.5107862 L290.582078,54.5107862 L290.561161,53.9023437 L290.561161,53.9023437 L290.531674,53.3275462 C290.526113,53.2345643 290.520246,53.1429947 290.514097,53.0528426 L290.47403,52.5289816 L290.47403,52.5289816 L290.428425,52.0393909 L290.428425,52.0393909 L290.378494,51.5843204 L290.378494,51.5843204 L290.298138,50.9669871 L290.298138,50.9669871 L290.214867,50.4287309 L290.214867,50.4287309 L290.106378,49.8355232 L290.106378,49.8355232 L290.055948,49.5928252 C288.784876,43.2189158 283.204708,38.716797 277.005342,35.0109238 L276.115905,34.4868138 L276.115905,34.4868138 L275.220434,33.9728403 L275.220434,33.9728403 L274.321319,33.4683064 L274.321319,33.4683064 L272.971046,32.7276806 L272.971046,32.7276806 L271.180243,31.7667145 L271.180243,31.7667145 L268.126319,30.1423457 L268.126319,30.1423457 L266.869574,29.4624236 C266.73217,29.3872727 266.59556,29.3122393 266.459795,29.2373089 L265.655731,28.7888461 L265.655731,28.7888461 L264.874321,28.3421578 C261.02789,26.1119916 258.12061,23.9222414 257.497199,21.3809447 Z M19.4551693,21.2014308 C19.1229863,19.8180693 19.1749175,18.3628413 19.3453354,17.5172396 L19.4158807,17.2006294 L19.4158807,17.2006294 L19.4959477,16.8873555 C20.105559,14.6894597 21.7723086,12.4240463 26.0802666,12.4240463 C30.3613445,12.4240463 32.8820582,15.0847996 32.8820582,19.0717003 L32.8820582,23.601842 L51.1389053,23.601842 L51.1389053,18.4598492 C51.1389053,7.47351305 44.3042641,2.85958259 36.6671008,1.0547326 L36.0011238,0.904782575 C35.4447021,0.785579785 34.8849846,0.680585121 34.3242663,0.588442715 L33.651071,0.483954134 L33.651071,0.483954134 L32.9777965,0.391283066 L32.9777965,0.391283066 L32.305324,0.309908855 L32.305324,0.309908855 L31.634535,0.239310847 C31.4113172,0.217516361 31.1885269,0.197431134 30.966311,0.178968389 L30.3015332,0.128360825 L30.3015332,0.128360825 L29.641083,0.0869675027 L29.641083,0.0869675027 L28.9858418,0.0542677664 L28.9858418,0.0542677664 L28.3366911,0.0297409622 L28.3366911,0.0297409622 L27.6945121,0.0128664359 L27.6945121,0.0128664359 L26.7462438,-8.39999997e-06 L26.7462438,-8.39999997e-06 L26.4345951,-8.39999997e-06 C26.1608871,-8.39999997e-06 25.888233,0.00190444339 25.6166915,0.00576111346 L24.8054642,0.023193587 C24.2669497,0.0387442005 23.7331213,0.0621940538 23.2044492,0.0937910134 L22.4153672,0.147327766 C22.2845177,0.157279274 22.1540052,0.167747722 22.023837,0.178736983 L21.2470184,0.250953286 C20.9894953,0.277129294 20.7334084,0.305419537 20.4788164,0.335854998 L19.7195838,0.433628019 C19.0907253,0.52052022 18.4715774,0.621013679 17.8630589,0.735592511 L17.1379976,0.879879072 L17.1379976,0.879879072 L16.4234933,1.03787349 L16.4234933,1.03787349 L15.7198989,1.20976166 C15.487225,1.269394 15.2564281,1.33137295 15.0275671,1.3957295 L14.3468508,1.59596288 C7.26154528,3.77395828 2.15548908,8.34186326 0.866550481,16.2680877 C0.334587782,19.5491509 0.24342103,22.4354715 1.01222931,26.1338341 C2.36575013,32.5249249 7.88607896,36.9757569 14.0620234,40.7155438 L14.9700928,41.2578965 C15.1220818,41.3474902 15.274359,41.4366966 15.4268734,41.5255335 L16.3443983,42.0542637 L16.3443983,42.0542637 L17.7260094,42.832605 L17.7260094,42.832605 L19.5652572,43.8473468 L19.5652572,43.8473468 L22.2781767,45.3339856 L22.2781767,45.3339856 L23.5960761,46.0676018 L23.5960761,46.0676018 L24.8772646,46.7986016 L24.8772646,46.7986016 L25.7069196,47.285908 C25.8433943,47.3671834 25.9789343,47.4484995 26.1134889,47.5298742 L26.9085828,48.0189678 C30.2992111,50.1426547 32.9547606,52.3300404 33.9798187,54.8945948 C34.651178,56.5623083 34.494187,58.6787817 34.1769245,60.073279 L34.122678,60.2988095 C34.0443424,60.6197524 33.9481299,60.9410951 33.8291704,61.257273 L33.7024482,61.5715231 C32.8495681,63.5482602 31.0191672,65.243431 26.9740767,65.243431 C22.4016412,65.243431 19.6666386,62.579858 19.6666386,58.5788594 L19.6412623,51.5355229 L-3.59760088e-06,51.5355229 L-3.59760088e-06,57.1324096 C-3.59760088e-06,72.8427155 11.8449824,78.0064364 24.9628691,78.3943976 L25.7842989,78.4124789 L25.7842989,78.4124789 L26.6084699,78.4184365 L26.6084699,78.4184365 L27.4234251,78.4126604 C27.8293358,78.4068702 28.232852,78.3967055 28.6337748,78.3820704 L29.4321035,78.3468115 C29.82948,78.3261735 30.2241304,78.3010013 30.6158559,78.2711994 L31.395348,78.2053939 L31.395348,78.2053939 L32.1666866,78.127072 C32.4224013,78.0988597 32.6766981,78.068533 32.9295181,78.0360635 L33.6834889,77.9321981 C33.9332965,77.8954146 34.1815683,77.85646 34.4282454,77.8153058 L35.1634339,77.6852162 C44.2920166,75.9759051 51.0952258,71.1336132 52.4650526,61.6625513 C52.6537637,60.3095508 52.7716974,59.0577965 52.8375992,57.9106919 L52.874031,57.1614964 L52.874031,57.1614964 L52.8962801,56.4435323 C52.9014699,56.209441 52.9045016,55.9805923 52.905581,55.7570236 L52.9031679,55.1021944 L52.9031679,55.1021944 L52.8902749,54.4792688 L52.8902749,54.4792688 L52.8681365,53.888471 L52.8681365,53.888471 L52.8379869,53.3300248 L52.8379869,53.3300248 L52.8010603,52.8041546 L52.8010603,52.8041546 L52.758591,52.3110842 L52.758591,52.3110842 L52.6871946,51.6334687 L52.6871946,51.6334687 L52.61027,51.0309135 L52.61027,51.0309135 L52.5063044,50.3455741 L52.5063044,50.3455741 L52.3879838,49.6811723 L52.3879838,49.6811723 C51.121358,43.3827245 45.7076254,38.9018057 39.6167243,35.2163102 L38.7209416,34.682529 C38.5709731,34.5944723 38.4207024,34.5068591 38.2701799,34.4196746 L37.3644263,33.9015933 L37.3644263,33.9015933 L36.4550463,33.3930888 L36.4550463,33.3930888 L35.5444563,32.8934493 L35.5444563,32.8934493 L34.6350732,32.4019629 L34.6350732,32.4019629 L30.6225791,30.2720828 L30.6225791,30.2720828 L29.3394485,29.584397 L29.3394485,29.584397 L28.5061787,29.1300508 L28.5061787,29.1300508 L27.6934487,28.678163 L27.6934487,28.678163 L26.9036753,28.2280218 C26.7740937,28.1531042 26.6455693,28.0782298 26.5181525,28.0033836 L25.767345,27.5545274 C22.4521448,25.535134 20.0177621,23.5147355 19.4551693,21.2014308 Z" fill="#1428A0"></path>
    </g>
</svg>

<svg width="512" height="79" xmlns="http://www.w3.org/2000/svg" preserveAspectRatio="xMidYMid">
	<path d="M486.109 34.442v10.675h7.502V55.71c.02.81-.015 1.677-.128 2.422l-.063.361c-.012.081-.027.164-.045.249l-.06.26a5.402 5.402 0 0 1-.038.134l-.087.275c-.675 1.95-2.706 4.422-7.27 4.422-4.861 0-6.813-2.837-7.346-4.83l-.063-.261-.047-.249c-.135-.816-.192-1.837-.192-2.783V22.256c0-1.052.063-2.192.253-3.12l.129-.565.03-.12.07-.248.042-.129.093-.266c.694-1.848 2.528-4.31 6.991-4.31 3.446 0 5.3 1.404 6.292 2.855l.176.272c.055.09.107.181.156.272l.139.268.122.264.105.257.091.247.077.238.065.224.052.21.042.192c.02.096.037.198.053.304l.043.327.02.17.044.514.03.492.026.672.007.345v4.062h18.433l.004-2.529.012-.904-.004-.701-.016-.817-.015-.439-.033-.685-.047-.702-.04-.469C510.466 6.08 501.177 1.325 489.875.498l-.756-.05-.762-.037a53.15 53.15 0 0 0-1.152-.036l-.774-.01c-.13-.002-.26-.002-.39-.002l-.777.005-.386.007-.77.021-.765.033-.758.044-.752.055c-.25.021-.498.043-.746.068l-.739.08c-.122.014-.244.028-.366.044l-.728.098c-1.689.243-3.313.59-4.853 1.053l-.655.206c-7.142 2.343-12.332 7.325-13.398 16.36l-.11 1.003-.075.777-.07.814-.059.81c-.033.53-.055 1.028-.055 1.44l.002 31.168.005.387.016.588.018.412.026.44.033.479.042.527.081.905.069.694c1.034 11.484 9.738 16.592 20.388 17.797l.746.078c1.249.12 2.522.186 3.81.206l.775.005.78-.005a47.916 47.916 0 0 0 3.827-.206l.75-.078c10.684-1.205 19.33-6.313 20.383-17.797l.085-1.012.063-.857.057-.96.034-.827.03-1.17V34.441h-25.891ZM359.006 2.332h-18.511V56.48c.029.944 0 2.004-.163 2.781l-.054.236-.068.25a7.283 7.283 0 0 1-.082.264l-.096.275c-.699 1.862-2.478 4.291-6.734 4.291-3.991 0-5.813-2.192-6.577-4.008l-.111-.283a7.002 7.002 0 0 1-.05-.138l-.087-.27-.072-.258a6.48 6.48 0 0 1-.031-.123l-.051-.236c-.185-.777-.209-1.837-.185-2.78V2.33h-18.506V54.8l-.004.421.007.738.026 1.085.05 1.32.036.663.024.353.023.259c.907 9.707 6.602 14.76 14.645 16.874l.685.172c1.496.357 3.069.617 4.703.791l.759.074.767.062.775.05c.39.023.782.04 1.177.054l.794.022.8.01c.134.002.269.002.403.002l.806-.005.4-.007.795-.022c.396-.013.789-.031 1.18-.053l.775-.05.769-.063.76-.074c10.826-1.15 18.948-6.079 20.066-17.837l.015-.117.03-.308.045-.614.04-.744.022-.537.023-.824.006-.536-.002-.503-.012-.454-.01-.202V2.332Zm-170.087 0-9.234 57.215-9.229-57.215h-29.86l-1.584 73.194h18.294l.495-67.758 12.587 67.758h18.56l12.598-67.758.497 67.758h18.34l-1.637-73.194h-29.827Zm-110.557 0L64.804 75.526h19.771L94.793 7.768l9.972 67.758h19.634L110.897 2.332H78.362Zm345.339 58.93-17.237-58.93h-27.162v72.431h17.968l-1.043-60.815 18.511 60.815h26.05V2.332h-18.085l.998 58.93ZM257.497 21.381c-.325-1.446-.231-2.981-.063-3.784.048-.213.104-.428.17-.642l.108-.321c.73-2.03 2.439-3.936 6.356-3.936 4.227 0 6.706 2.636 6.706 6.59v4.476h18.045v-5.101c0-11.513-7.535-15.942-15.586-17.494l-.663-.121-.664-.109-.665-.097-.664-.085-.664-.075-.661-.064c-.22-.02-.44-.038-.659-.054l-.654-.045-.65-.036-.645-.028-.639-.02-.63-.014-.932-.007-.41.002-.817.012c-.136.002-.27.006-.406.01l-.806.03c-.267.011-.533.025-.798.04l-.79.055c-11.01.842-19.6 5.364-21.319 15.968-.508 3.23-.634 6.096.175 9.754 1.274 6.011 6.282 10.289 12.03 13.876l.89.547.448.27.903.531.908.524.912.515 1.368.76 3.594 1.97.874.484.858.482.841.482.821.482c3.918 2.332 7.057 4.696 8.186 7.523.625 1.68.489 3.796.187 5.147l-.052.218c-.075.324-.169.65-.287.969l-.126.317c-.832 1.942-2.649 3.598-6.642 3.598-4.554 0-7.296-2.618-7.296-6.565l-.006-7.024H238.26v5.584c0 13.105 8.315 18.798 18.729 20.488l.775.118c.519.074 1.043.138 1.57.193l.795.076c.931.08 1.873.134 2.821.162l.815.018.409.004.409.002c.272 0 .544-.002.814-.006l.808-.018.4-.013.799-.036c.264-.013.528-.03.79-.047l.783-.06c.519-.045 1.033-.098 1.541-.16l.758-.098.749-.112c.248-.04.494-.08.739-.125l.73-.138c8.815-1.766 15.374-6.555 16.69-15.763.182-1.374.294-2.642.354-3.802l.032-.756c.005-.124.008-.246.011-.367l.012-.707v-.675l-.01-.642-.022-.609-.03-.574a32.907 32.907 0 0 0-.017-.275l-.04-.524-.046-.49-.05-.455-.08-.617-.083-.538-.109-.593-.05-.243c-1.271-6.374-6.851-10.876-13.05-14.582l-.89-.524-.896-.514-.899-.505-1.35-.74-1.79-.961-3.055-1.625-1.256-.68-.41-.225-.804-.448-.782-.447c-3.846-2.23-6.753-4.42-7.377-6.961ZM19.455 21.2c-.332-1.383-.28-2.838-.11-3.684l.07-.316.08-.314c.61-2.198 2.277-4.463 6.585-4.463 4.281 0 6.802 2.66 6.802 6.648v4.53H51.14V18.46c0-10.986-6.835-15.6-14.472-17.405l-.666-.15a35.446 35.446 0 0 0-1.677-.317l-.673-.104-.673-.093-.673-.081-.67-.07a46.484 46.484 0 0 0-.669-.061l-.664-.05-.66-.042-.656-.033-.65-.024-.641-.017L26.746 0h-.311c-.274 0-.547.002-.818.006l-.812.017c-.538.016-1.072.04-1.6.07l-.79.054c-.13.01-.261.02-.391.032l-.777.072c-.258.026-.514.054-.768.085l-.76.098c-.628.087-1.247.187-1.856.302l-.725.144-.715.158-.703.172c-.233.06-.464.121-.692.186l-.681.2C7.262 3.774 2.155 8.342.867 16.268c-.532 3.281-.624 6.167.145 9.866 1.354 6.39 6.874 10.842 13.05 14.582l.908.542.457.268.917.528 1.382.779 1.84 1.014 2.712 1.487 1.318.734 1.281.73.83.488c.136.081.272.162.406.244l.796.489c3.39 2.124 6.046 4.311 7.07 6.876.672 1.667.515 3.784.198 5.178l-.054.226c-.079.32-.175.642-.294.958l-.127.315c-.852 1.976-2.683 3.671-6.728 3.671-4.572 0-7.307-2.663-7.307-6.664l-.026-7.043H0v5.596c0 15.71 11.845 20.874 24.963 21.262l.821.018.824.006.815-.005c.406-.006.81-.016 1.21-.03l.8-.036c.396-.02.791-.046 1.183-.076l.78-.066.77-.078c.256-.028.51-.058.764-.09l.753-.105c.25-.037.499-.076.745-.117l.735-.13c9.129-1.71 15.932-6.551 17.302-16.022a46.45 46.45 0 0 0 .373-3.752l.036-.75.022-.717a39.6 39.6 0 0 0 .01-.687l-.003-.655-.013-.623-.022-.59-.03-.559-.037-.526-.042-.493-.072-.678-.077-.602-.104-.685-.118-.665c-1.267-6.298-6.68-10.78-12.771-14.465l-.896-.533a87.9 87.9 0 0 0-.45-.263l-.907-.518-.909-.509-.91-.5-.91-.491-4.012-2.13-1.284-.688-.833-.454-.813-.452-.79-.45-.385-.225-.75-.448c-3.316-2.02-5.75-4.04-6.313-6.354Z" fill="#1428A0"/>
</svg>
